docs/.vuepress/public/img/search.svg

<?xml version="1.0" encoding="UTF-8"?>
<svg width="18px" height="18px" viewBox="0 0 18 18" version="1.1" xmlns="http://www.w3.org/2000/svg" xmlns:xlink="http://www.w3.org/1999/xlink">
    <!-- Generator: Sketch 57.1 (83088) - https://sketch.com -->
    <title>Artboard</title>
    <desc>Created with Sketch.</desc>
    <g id="Artboard" stroke="none" stroke-width="1" fill="none" fill-rule="evenodd">
        <g id="search-24px-(1)">
            <polygon id="Path" points="0 0 18 0 18 18 0 18"></polygon>
            <path d="M11.625,10.5 L11.0325,10.5 L10.8225,10.2975 C11.5575,9.4425 12,8.3325 12,7.125 C12,4.4325 9.8175,2.25 7.125,2.25 C4.4325,2.25 2.25,4.4325 2.25,7.125 C2.25,9.8175 4.4325,12 7.125,12 C8.3325,12 9.4425,11.5575 10.2975,10.8225 L10.5,11.0325 L10.5,11.625 L14.25,15.3675 L15.3675,14.25 L11.625,10.5 Z M7.125,10.5 C5.2575,10.5 3.75,8.9925 3.75,7.125 C3.75,5.2575 5.2575,3.75 7.125,3.75 C8.9925,3.75 10.5,5.2575 10.5,7.125 C10.5,8.9925 8.9925,10.5 7.125,10.5 Z" id="Shape" fill="#2043B5" fill-rule="nonzero"></path>
        </g>
    </g>
</svg>

<?xml version="1.0" encoding="utf-8"?>
<!-- Generator: Adobe Illustrator 24.3.0, SVG Export Plug-In . SVG Version: 6.00 Build 0)  -->
<svg version="1.1" id="Layer_1" xmlns="http://www.w3.org/2000/svg" xmlns:xlink="http://www.w3.org/1999/xlink" x="0px" y="0px"
	 viewBox="0 0 18 18" style="enable-background:new 0 0 18 18;" xml:space="preserve">
<style type="text/css">
	.st0{fill:none;}
	.st1{fill:#F0F0F0;}
</style>
<desc>Created with Sketch.</desc>
<g id="Artboard">
	<g id="search-24px-_x28_1_x29_">
		<polygon id="Path" class="st0" points="0,0 18,0 18,18 0,18 		"/>
		<path id="Shape" class="st1" d="M11.6,10.5H11l-0.2-0.2c0.7-0.9,1.2-2,1.2-3.2c0-2.7-2.2-4.9-4.9-4.9S2.2,4.4,2.2,7.1
			S4.4,12,7.1,12c1.2,0,2.3-0.4,3.2-1.2l0.2,0.2v0.6l3.8,3.7l1.1-1.1L11.6,10.5z M7.1,10.5c-1.9,0-3.4-1.5-3.4-3.4s1.5-3.4,3.4-3.4
			s3.4,1.5,3.4,3.4S9,10.5,7.1,10.5z"/>
	</g>
</g>
</svg>
